X:060 
T:Four Shoves (2) (polka), The 
B:CRE3.070 (Ceithre Turraing 2)
F:file ID: cre.3/060four_s2
R:polka
Q:140
M:2/4
L:1/8
K:D
EB BA/B/|EB A2|EB B/A/B/c/|d2 A2:|
dA/d/ ef/e/|df fe|dA/d/ ef/e/|d2 d>A|
dA/d/ ef/e/|df fe|fg/f/ ef/e/|1 d2 d>A:|\
[2 d2 d2|]

%%%

